src/client/web-contents/img/common/badge/badge_member_05.svg

<svg height="32" viewBox="0 0 32 32" width="32" xmlns="http://www.w3.org/2000/svg"><g fill="none" fill-rule="evenodd"><rect fill="#f3981f" height="32" rx="4" width="32"/><path d="m16.26 22.98c-1.0933388 0-2.0866622-.1833315-2.98-.55s-1.6566635-.8733301-2.29-1.52-1.1233316-1.4066623-1.47-2.28-.52-1.8233282-.52-2.85v-.04c0-.9733382.1766649-1.8999956.53-2.78s.8499968-1.6499967 1.49-2.31 1.4033289-1.1833314 2.29-1.57 1.8566614-.58 2.91-.58c.6133364 0 1.1699975.0433329 1.67.13s.9633312.2099992 1.39.37.8299981.3566655 1.21.59.7499982.5033318 1.11.81l-1.56 1.86c-.266668-.2266678-.5399986-.4333324-.82-.62s-.5733318-.3433327-.88-.47-.6433315-.2266663-1.01-.3-.7699978-.11-1.21-.11c-.6400032 0-1.2366639.133332-1.79.4s-1.0333313.6233311-1.44 1.07-.7266655.969997-.96 1.57-.35 1.23333-.35 1.9v.04c0 .7200036.1133322 1.3866636.34 2s.5499979 1.1399978.97 1.58.9199971.7866654 1.5 1.04 1.2299964.38 1.95.38c.66667 0 1.2899971-.0966657 1.87-.29s1.0833312-.4499984 1.51-.77v-2.62h-3.58v-2.14h5.96v5.88c-.3466684.2933348-.7299979.573332-1.15.84s-.8733309.499999-1.36.7-1.0099972.3566661-1.57.47-1.1466636.17-1.76.17z" fill="#fff"/></g></svg>

<?xml version="1.0" encoding="UTF-8" standalone="no"?>
<svg width="32px" height="32px" viewBox="0 0 32 32" version="1.1" xmlns="http://www.w3.org/2000/svg" xmlns:xlink="http://www.w3.org/1999/xlink">
    <!-- Generator: Sketch 50.2 (55047) - http://www.bohemiancoding.com/sketch -->
    <title>graphic_badge_member_05</title>
    <desc>Created with Sketch.</desc>
    <defs></defs>
    <g id="Icon_Badge_Graphic" stroke="none" stroke-width="1" fill="none" fill-rule="evenodd">
        <g id="##Element/Badge/Member05">
            <rect id="Rectangle-2" fill="#F3981F" x="0" y="0" width="32" height="32" rx="4"></rect>
            <path d="M16.26,22.98 C15.1666612,22.98 14.1733378,22.7966685 13.28,22.43 C12.3866622,22.0633315 11.6233365,21.5566699 10.99,20.91 C10.3566635,20.2633301 9.8666684,19.5033377 9.52,18.63 C9.1733316,17.7566623 9,16.8066718 9,15.78 L9,15.74 C9,14.7666618 9.1766649,13.8400044 9.53,12.96 C9.8833351,12.0799956 10.3799968,11.3100033 11.02,10.65 C11.6600032,9.9899967 12.4233289,9.4666686 13.31,9.08 C14.1966711,8.6933314 15.1666614,8.5 16.22,8.5 C16.8333364,8.5 17.3899975,8.5433329 17.89,8.63 C18.3900025,8.7166671 18.8533312,8.8399992 19.28,9 C19.7066688,9.1600008 20.1099981,9.3566655 20.49,9.59 C20.8700019,9.8233345 21.2399982,10.0933318 21.6,10.4 L20.04,12.26 C19.773332,12.0333322 19.5000014,11.8266676 19.22,11.64 C18.9399986,11.4533324 18.6466682,11.2966673 18.34,11.17 C18.0333318,11.0433327 17.6966685,10.9433337 17.33,10.87 C16.9633315,10.7966663 16.5600022,10.76 16.12,10.76 C15.4799968,10.76 14.8833361,10.893332 14.33,11.16 C13.7766639,11.426668 13.2966687,11.7833311 12.89,12.23 C12.4833313,12.6766689 12.1633345,13.199997 11.93,13.8 C11.6966655,14.400003 11.58,15.03333 11.58,15.7 L11.58,15.74 C11.58,16.4600036 11.6933322,17.1266636 11.92,17.74 C12.1466678,18.3533364 12.4699979,18.8799978 12.89,19.32 C13.3100021,19.7600022 13.8099971,20.1066654 14.39,20.36 C14.9700029,20.6133346 15.6199964,20.74 16.34,20.74 C17.00667,20.74 17.6299971,20.6433343 18.21,20.45 C18.7900029,20.2566657 19.2933312,20.0000016 19.72,19.68 L19.72,17.06 L16.14,17.06 L16.14,14.92 L22.1,14.92 L22.1,20.8 C21.7533316,21.0933348 21.3700021,21.373332 20.95,21.64 C20.5299979,21.906668 20.0766691,22.139999 19.59,22.34 C19.1033309,22.540001 18.5800028,22.6966661 18.02,22.81 C17.4599972,22.9233339 16.8733364,22.98 16.26,22.98 Z" id="G" fill="#FFFFFF"></path>
        </g>
    </g>
</svg>
